X:1
T:Music in the Glen
M:C|
L:1/8
R:Reel
K:G
D|GABG EGDC|B,DGB AGAB|c2 ec B2GB|cABG AGED|G2 BG EGDC|
B,DGB AGAB|cdef g2 ge|dcBA G3:|
|:A|BGdG eGdG|BGdB cAFA|BGdB e2 de|gdBG AGEG|
BGdG eBde|g2 fg afdf|g2 fg egdB|cABG AG E:|
